static/app-icons/light-theme/039.svg

<svg xmlns="http://www.w3.org/2000/svg" xmlns:xlink="http://www.w3.org/1999/xlink" viewBox="0 0 32 32"><defs><linearGradient id="linear-gradient" x1="74.5" y1="-22.5" x2="89.5" y2="-22.5" gradientTransform="translate(-66.5 49.5)" gradientUnits="userSpaceOnUse"><stop offset=".001" stop-opacity="0"/><stop offset=".8"/></linearGradient><linearGradient id="linear-gradient-2" x1="74.5" y1="-30.5" x2="89.5" y2="-30.5" xlink:href="#linear-gradient"/><linearGradient id="linear-gradient-3" y1="32" x2="32" gradientUnits="userSpaceOnUse"><stop offset=".1" stop-color="#42be65"/><stop offset=".9" stop-color="#007d79"/></linearGradient><style>.cls-6{fill:#001d6c}</style><mask id="mask" x="0" y="0" width="32" height="32" maskUnits="userSpaceOnUse"><path d="M26 12V4a2 2 0 00-2-2H8a2 2 0 00-2 2v22a2 2 0 002 2h14v-2H8v-6h14v-2H8v-6zM8 10V4h16v6z" fill="#fff"/><path fill="url(#linear-gradient)" d="M8 25h15v4H8z" id="Gradients_black_" data-name="Gradients (black)"/><path fill="url(#linear-gradient-2)" d="M8 17h15v4H8z" id="Gradients_black_2" data-name="Gradients (black)"/></mask></defs><g id="Layer_2" data-name="Layer 2"><g id="Light_theme_icons" data-name="Light theme icons"><g mask="url(#mask)"><path id="Color" fill="url(#linear-gradient-3)" d="M0 0h32v32H0z"/></g><circle class="cls-6" cx="11" cy="23" r="1"/><circle class="cls-6" cx="11" cy="15" r="1"/><circle class="cls-6" cx="11" cy="7" r="1"/><path class="cls-6" d="M29 18h-3v-2h-2v2h-1a2 2 0 00-2 2v2a2 2 0 002 2h4v2h-6v2h3v2h2v-2h1a2 2 0 002-2v-2.006a2 2 0 00-2-2h-4v-2h6z"/></g></g></svg>

<svg xmlns="http://www.w3.org/2000/svg" xmlns:xlink="http://www.w3.org/1999/xlink" viewBox="0 0 32 32"><defs><style>.cls-1{fill:#fff;}.cls-2{fill:url(#linear-gradient);}.cls-3{fill:url(#linear-gradient-2);}.cls-4{mask:url(#mask);}.cls-5{fill:url(#linear-gradient-3);}.cls-6{fill:#001d6c;}</style><linearGradient id="linear-gradient" x1="74.5" y1="-22.5" x2="89.5" y2="-22.5" gradientTransform="translate(-66.5 49.5)" gradientUnits="userSpaceOnUse"><stop offset="0.001" stop-opacity="0"/><stop offset="0.8"/></linearGradient><linearGradient id="linear-gradient-2" x1="74.5" y1="-30.5" x2="89.5" y2="-30.5" xlink:href="#linear-gradient"/><mask id="mask" x="0" y="0" width="32" height="32" maskUnits="userSpaceOnUse"><path class="cls-1" d="M26,12V4a2,2,0,0,0-2-2H8A2,2,0,0,0,6,4V26a2,2,0,0,0,2,2H22V26H8V20H22V18H8V12ZM8,10V4H24v6Z"/><g id="Gradients_black_" data-name="Gradients (black)"><rect class="cls-2" x="8" y="25" width="15" height="4"/></g><g id="Gradients_black_2" data-name="Gradients (black)"><rect class="cls-3" x="8" y="17" width="15" height="4"/></g></mask><linearGradient id="linear-gradient-3" y1="32" x2="32" gradientUnits="userSpaceOnUse"><stop offset="0.1" stop-color="#42be65"/><stop offset="0.9" stop-color="#007d79"/></linearGradient></defs><g id="Layer_2" data-name="Layer 2"><g id="Light_theme_icons" data-name="Light theme icons"><g class="cls-4"><rect id="Color" class="cls-5" width="32" height="32"/></g><circle class="cls-6" cx="11" cy="23" r="1"/><circle class="cls-6" cx="11" cy="15" r="1"/><circle class="cls-6" cx="11" cy="7" r="1"/><path class="cls-6" d="M29,18H26V16H24v2H23a2,2,0,0,0-2,2V22a2,2,0,0,0,2,2l4,0,0,2H21v2h3v2h2V28h1a2,2,0,0,0,2-2V23.994a2,2,0,0,0-2-2l-4,0,0-2h6Z"/></g></g></svg>
